X: 26792
T: Miller Of Drone, The
R: strathspey
M: 4/4
K: Amajor
c>B|A<AF<A E>F E>C|A,<A, d>c B2 (3BcB|A2F<A E>F E>C|E<EE>F A2 c>B|
A<AF<A E>F E>C|A,<A, d>c B2 c>d|e>d c>B A>F E<C|E<EE>F A2 c>d|
e<Aa>f e>fe>d|c<A a>g f>ed<f|e<Aa>f e>fe>c|d<b c<a B2 c>d|
(3ece (3agf e>fe>d|c<e a>g f<a g<b|(3agf (3efg (3aed (3cBA|(3bag (3agf (3efe (3dcB|

